src/next/cmd/nl/sc_underline.svg

<svg height="16" viewBox="0 0 4.2333333 4.2333335" width="16" xmlns="http://www.w3.org/2000/svg" xmlns:xlink="http://www.w3.org/1999/xlink"><linearGradient id="a" gradientUnits="userSpaceOnUse" x1="14.867142" x2="16.027357" y1="29.901333" y2="3.216367"><stop offset="0" stop-color="#555"/><stop offset="1"/></linearGradient><linearGradient id="b" gradientUnits="userSpaceOnUse" x1="4.361248" x2="29.504932" y1="11.117668" y2="11.117668"><stop offset="0" stop-color="#3b3e22"/><stop offset="1" stop-color="#454545" stop-opacity="0"/></linearGradient><g transform="scale(.125)"><path d="m15.844627 30.232013q-5.48202 0-9.2585235-3.857718-3.776503-3.898326-3.776503-10.15189 0-6.131741 3.7358955-10.0706743 3.735895-3.9389333 9.542776-3.9389333 5.847489 0 9.542777 3.9389333 3.735895 3.8983253 3.735895 10.2331053 0 6.131741-3.776503 9.989459-3.735895 3.857718-9.745814 3.857718zm8.893055-13.887785q0-2.923744-.568505-5.197768-.568506-2.2740229-1.461872-3.6546799-.852759-1.380657-2.030378-2.2740233-1.17762-.8933663-2.314631-1.2182268-1.096404-.3248604-2.274024-.3248604-1.98977 0-3.573465.8527587-1.583695.8527588-2.5176685 2.1522007-.8933663 1.2588343-1.5024797 3.0049593-.6091134 1.7461247-.8527587 3.3704277-.2030378 1.583695-.2030378 3.248604 0 2.070986.4060756 4.060756.4060755 1.989771 1.2994419 3.979541.8933662 1.989771 2.6394912 3.207997 1.786733 1.218227 4.223186 1.218227 2.477061 0 4.263794-1.218227 1.82734-1.218226 2.720706-3.207997.933974-1.98977 1.34005-3.979541.406075-1.98977.406075-4.020148z" fill="url(#a)" stroke-width=".964705" transform="scale(1.0525265 .95009484)"/><rect fill="#010101" height="2.116667" rx=".472075" ry=".607224" stroke-width=".264583" width="33.866669" x=".000002" y="31.75"/><path d="m19.713283 2.5812379c.0023.0005813.0039.00303.0062.00362.0019.0005193.0043-.0005204.0062 0zm3.992523 2.4680663c.471133.4555668 1.002731.8432549 1.38131 1.3952639.74005 1.0362991 1.29169 2.3104002 1.714624 3.8374919.433261 1.564383.639236 3.312204.639236 5.246191 0 .747136-.04699 1.491258-.137459 2.231389a25.687006 11.838984 0 0 0 2.13527-.778764c.04275-.456861.06615-.927131.06615-1.413867 0-3.763539-1.181963-6.6224737-3.540353-8.8439051a1.4044505 1.2677697 0 0 1 -.0098-.011369c-.692046-.665863-1.45149-1.1977805-2.248978-1.6624307zm-14.4807718.8366417c-.4209497.3089859-.9247841.4594412-1.3156819.8314737-2.3711401 2.2567065-3.5481041 5.0693054-3.5481041 8.6955934 0 1.468592.1905643 2.798085.5653402 4.009058a25.687006 11.838984 0 0 0 1.9673219.232027c-.00391-.01705-.00855-.03411-.012402-.05116-.3040485-1.344847-.4563028-2.719246-.4563028-4.11396 0-1.106146.073932-2.188791.2242757-3.247348a1.4044505 1.2677697 0 0 1 .00413-.02584c.1856015-1.116897.5091568-2.2602706.961702-3.431313.4231127-1.0948779.9752981-2.0411136 1.609721-2.8985311z" fill="url(#b)"/></g></svg>

<?xml version="1.0" encoding="UTF-8" standalone="no"?>
<svg
   xmlns:dc="http://purl.org/dc/elements/1.1/"
   xmlns:cc="http://creativecommons.org/ns#"
   xmlns:rdf="http://www.w3.org/1999/02/22-rdf-syntax-ns#"
   xmlns:svg="http://www.w3.org/2000/svg"
   xmlns="http://www.w3.org/2000/svg"
   xmlns:xlink="http://www.w3.org/1999/xlink"
   xmlns:sodipodi="http://sodipodi.sourceforge.net/DTD/sodipodi-0.dtd"
   xmlns:inkscape="http://www.inkscape.org/namespaces/inkscape"
   height="16"
   viewBox="0 0 4.2333333 4.2333335"
   width="16"
   version="1.1"
   id="svg20"
   sodipodi:docname="sc_underline.svg"
   inkscape:version="0.92.4 (unknown)">
  <metadata
     id="metadata26">
    <rdf:RDF>
      <cc:Work
         rdf:about="">
        <dc:format>image/svg+xml</dc:format>
        <dc:type
           rdf:resource="http://purl.org/dc/dcmitype/StillImage" />
        <dc:title></dc:title>
      </cc:Work>
    </rdf:RDF>
  </metadata>
  <defs
     id="defs24">
    <linearGradient
       inkscape:collect="always"
       xlink:href="#b"
       id="linearGradient42"
       gradientUnits="userSpaceOnUse"
       x1="14.867142"
       y1="29.901333"
       x2="16.027357"
       y2="3.216367" />
    <linearGradient
       inkscape:collect="always"
       xlink:href="#b"
       id="linearGradient44"
       gradientUnits="userSpaceOnUse"
       x1="14.867142"
       y1="29.901333"
       x2="16.027357"
       y2="3.216367" />
  </defs>
  <sodipodi:namedview
     pagecolor="#ffffff"
     bordercolor="#666666"
     borderopacity="1"
     objecttolerance="10"
     gridtolerance="10"
     guidetolerance="10"
     inkscape:pageopacity="0"
     inkscape:pageshadow="2"
     inkscape:window-width="1366"
     inkscape:window-height="706"
     id="namedview22"
     showgrid="true"
     inkscape:zoom="7.375"
     inkscape:cx="32.755057"
     inkscape:cy="20.437"
     inkscape:window-x="0"
     inkscape:window-y="0"
     inkscape:window-maximized="1"
     inkscape:current-layer="g40">
    <inkscape:grid
       type="xygrid"
       id="grid31" />
  </sodipodi:namedview>
  <linearGradient
     id="a"
     gradientUnits="userSpaceOnUse"
     x1="4.361248"
     x2="29.504932"
     y1="11.117668"
     y2="11.117668">
    <stop
       offset="0"
       stop-color="#3b3e22"
       id="stop2" />
    <stop
       offset="1"
       stop-color="#454545"
       stop-opacity="0"
       id="stop4" />
  </linearGradient>
  <linearGradient
     id="b"
     gradientUnits="userSpaceOnUse"
     x1="14.867142"
     x2="16.027357"
     y1="29.901333"
     y2="3.216367">
    <stop
       offset="0"
       stop-color="#555"
       id="stop7" />
    <stop
       offset="1"
       id="stop9" />
  </linearGradient>
  <g
     id="g40"
     transform="scale(0.125)">
    <g
       id="text14"
       style="font-size:38.58823776px;font-family:sans-serif;letter-spacing:0;word-spacing:0;fill:url(#linearGradient44);stroke-width:0.96470499"
       transform="scale(1.0525265,0.95009484)"
       aria-label="O">
      <path
         id="path28"
         style="font-size:40.6075592px;font-family:FreeSerif;fill:url(#linearGradient42);stroke-width:0.96470499"
         d="m 15.844627,30.232013 q -5.48202,0 -9.2585235,-3.857718 -3.776503,-3.898326 -3.776503,-10.15189 0,-6.131741 3.7358955,-10.0706743 3.735895,-3.9389333 9.542776,-3.9389333 5.847489,0 9.542777,3.9389333 3.735895,3.8983253 3.735895,10.2331053 0,6.131741 -3.776503,9.989459 -3.735895,3.857718 -9.745814,3.857718 z m 8.893055,-13.887785 q 0,-2.923744 -0.568505,-5.197768 Q 23.600671,8.8724371 22.707305,7.4917801 21.854546,6.1111231 20.676927,5.2177568 19.499307,4.3243905 18.362296,3.99953 17.265892,3.6746696 16.088272,3.6746696 q -1.98977,0 -3.573465,0.8527587 Q 10.931112,5.3801871 9.9971385,6.679629 9.1037722,7.9384633 8.4946588,9.6845883 7.8855454,11.430713 7.6419001,13.055016 7.4388623,14.638711 7.4388623,16.30362 q 0,2.070986 0.4060756,4.060756 0.4060755,1.989771 1.2994419,3.979541 0.8933662,1.989771 2.6394912,3.207997 1.786733,1.218227 4.223186,1.218227 2.477061,0 4.263794,-1.218227 1.82734,-1.218226 2.720706,-3.207997 0.933974,-1.98977 1.34005,-3.979541 0.406075,-1.98977 0.406075,-4.020148 z"
         inkscape:connector-curvature="0" />
    </g>
    <rect
       id="rect16"
       y="31.75"
       x="2e-06"
       width="33.866669"
       ry="0.60722399"
       rx="0.47207499"
       height="2.116667"
       style="fill:#010101;stroke-width:0.26458299" />
    <path
       id="path18"
       d="m 19.713283,2.5812379 c 0.0023,5.813e-4 0.0039,0.00303 0.0062,0.00362 0.0019,5.193e-4 0.0043,-5.204e-4 0.0062,0 z m 3.992523,2.4680663 c 0.471133,0.4555668 1.002731,0.8432549 1.38131,1.3952639 0.74005,1.0362991 1.29169,2.3104002 1.714624,3.8374919 0.433261,1.564383 0.639236,3.312204 0.639236,5.246191 0,0.747136 -0.04699,1.491258 -0.137459,2.231389 a 25.687006,11.838984 0 0 0 2.13527,-0.778764 c 0.04275,-0.456861 0.06615,-0.927131 0.06615,-1.413867 0,-3.763539 -1.181963,-6.6224737 -3.540353,-8.8439051 a 1.4044505,1.2677697 0 0 1 -0.0098,-0.011369 C 25.262738,6.0458719 24.503294,5.5139544 23.705806,5.0493042 Z M 9.2250342,5.8859459 C 8.8040845,6.1949318 8.3002501,6.3453871 7.9093523,6.7174196 5.5382122,8.9741261 4.3612482,11.786725 4.3612482,15.413013 c 0,1.468592 0.1905643,2.798085 0.5653402,4.009058 a 25.687006,11.838984 0 0 0 1.9673219,0.232027 c -0.00391,-0.01705 -0.00855,-0.03411 -0.012402,-0.05116 -0.3040485,-1.344847 -0.4563028,-2.719246 -0.4563028,-4.11396 0,-1.106146 0.073932,-2.188791 0.2242757,-3.247348 a 1.4044505,1.2677697 0 0 1 0.00413,-0.02584 C 6.8392127,11.098893 7.162768,9.9555194 7.6153132,8.784477 8.0384259,7.6895991 8.5906113,6.7433634 9.2250342,5.8859459 Z"
       style="fill:url(#a)"
       inkscape:connector-curvature="0" />
  </g>
</svg>
